X:1
T:Gavotte
T:Gavotte
T:Opus Nº 112
T:Sébastian LEE
C:Sebastian LEE
%%score ( 1 2 )
L:1/8
Q:1/4=108
M:4/4
K:D
V:1 bass nm="Violoncello" snm="Vc."
V:2 bass 
V:1
!mf! (!tenuto!uD z !tenuto!uC) z | (!>!B,2- B,/F,/D,/F,/) (!tenuto!B, z !tenuto!D) z | %2
 F4 (!>!G2- G/F/E/G/) | (!>!F2- F/E/D/F/) (uEz/uC/)!p!vDz/uB,/ | %4
 (vC2 F,2)!mf! (!tenuto!uD z !tenuto!uC) z | (!>!B,2- B,/F,/D,/F,/) (!tenuto!B, z !tenuto!D) z | %6
!<(! F4 (!>!^E2 !>!E2)!<)! | %7
!>(! (A"^34313"!turn!CDz/.!4!B,/)!p! (!tenuto!!2!A, z !tenuto!!1!^G,) z!>)! | %8
 !3!F,2 z2"^1" (!>!F2 !>!F2) |:{/F} !open!!3!A4 (!>!D2 !>!D2) |{/D} F4!<(! (B,3 E) | %11
 (D2 C2)!<)! (B,2 !0!A,2) |!>(! (!1!A,2!>)! !open!!3!D2)!p! (!>!F2 !>!F2) | %13
{/F} !>!A4 (!>!D2 !>!D2) |{/D} !>!F4 (!>!E3 B,) |!<(! (B,2!<)! D2) (!>!C2"^rallentando" !>!B,2) | %16
!>(!{/!fermata!^A,} !>!!fermata!C4!mf!"^a tempo" (!tenuto!uD z !tenuto!uC) z!>)! | %17
 (!>!B,2- B,/F,/D,/F,/) (!tenuto!B, z !tenuto!D) z | F4 (!>!G2- G/F/E/G/) | %19
 (!>!F2- F/E/D/F/) (uEz/uC/)!p!vDz/uB,/ | (C2 F,2)!mf! (!tenuto!uD z !tenuto!uC) z | %21
 (!>!B,2- B,/F,/D,/F,/) (!tenuto!B, z !tenuto!D) z | F4 (!>!A2- A/G/F/E/) | %23
 (!>!G>F E/D/C/B,/) (F,z/B,/)!p!^A,z/C/ |1 B,2 z2 (!>!F2 !>!F2) :|2 %25
 B,2 !fermata!z2!f!{/G,,} .[D,B,] !>!B,2 =C/^C/ |: %26
[K:G]{/G,,} .[D,D] !>!D2 E/F/{/G,,} .!3!!4![=CG] (!>!G2 E/4G/4) z/ | %27
 !2!D4!ff! !tenuto!!1!!3!!4![E,,B,,^G,E]!tenuto!!2!D!tenuto!!1!!2![A,,E,C]!tenuto!!0!A, | %28
 !tenuto!!1!!3!!4![D,,A,,F,D]!tenuto!!2!C!tenuto!!0!!1![=G,,D,B,]!tenuto!!4!=G,"_dolce" !>!A,(A,[K:treble]!open!!thumb!A)(!open!A | %29
!>(! !open!a)(!open!a!>)! !open!d2)[K:bass]!f!{/G,,} .[D,B,] !>!B,2 C/^C/ | %30
{/G,,} .[D,D] !>!D2 E/F/{/G,,} .!3!!4![=CG] (!>!G2 E/4G/4) z/ | !>!B4!mp! (!>!B,2- B,/^C/D/E/) | %32
 (F/G/F/A,/ F/G/F/A,/) (E/F/E/A,/ E/F/E/A,/) |1 D2- !fermata!D z!f!{/G,,} .[D,B,] !>!B,2 C/^C/ :|2 %34
!f! (D/E/D/A,/ D/E/D/A,/)[K:tenor] (G/A/G/A,/ G/A/G/A,/) || %35
 (F/G/F/A,/ F/G/F/A,/) (E/F/E/A,/ E/F/E/A,/) | %36
[K:tenor] (!1!D/!3!E/!1!F/!2!G/ !3!^G/!2!A/!3!B/!2!A/) (=G/A/G/A,/ G/A/G/A,/) | %37
 (F/G/F/A,/ F/G/F/A,/)!>(! (E/F/E/A,/ E/F/E/A,/)!>)! | %38
 (D/E/D/A,/ D/E/D/A,/!>(! _E/=F/E/A,/ E/F/E/A,/)!>)! | %39
 (D/=E/D/A,/ D/E/D/A,/ _E/!>(!=F/E/A,/ E/F/E/A,/)!>)! | (D/E/D/A,/ D/E/D/A,/ D/E/D/A,/ D/E/D/A,/) | %41
 !fermata!D2 z2[K:bass]!mf! (!tenuto!uD z !tenuto!u^C) z || %42
[K:D] (!>!B,2- B,/F,/D,/F,/) (!tenuto!B, z !tenuto!D) z | F4 (!>!G2- G/F/E/G/) | %44
 (!>!F2- F/E/D/F/) (uEz/uC/)!p!vDz/uB,/ | (vC2 F,2)!mf! (!tenuto!uD z !tenuto!uC) z | %46
 (!>!B,2- B,/F,/D,/F,/) (!tenuto!B, z !tenuto!D) z |!<(! F4 (!>!^E2 !>!E2)!<)! | %48
!>(! (A"^34313"!turn!CDz/.!4!B,/)!p! (!tenuto!!2!A, z !tenuto!!1!^G,) z!>)! | %49
 !3!F,2 z2"^1" (!>!F2 !>!F2) |{/F} !open!!3!A4 (!>!D2 !>!D2) |{/D} F4!<(! (B,3 E) | %52
 (D2 C2)!<)! (B,2 A,2) |!>(! (A,2!>)! !open!!3!D2)!p! (!>!F2 !>!F2) |{/F} !>!A4 (!>!D2 !>!D2) | %55
{/D} !>!F4 (!>!E3 B,) |!<(! (B,2!<)! D2) (!>!C2 !>!B,2) | %57
{/!fermata!^A,} !>!!fermata!C4!mf!"^a tempo" (!tenuto!uD z !tenuto!uC) z | %58
 (!>!B,2- B,/F,/D,/F,/) (!tenuto!B, z !tenuto!D) z | F4 (!>!G2- G/F/E/G/) | %60
 (!>!F2- F/E/D/F/) (uEz/uC/)!p!vDz/uB,/ | (vC2 F,2)!mf! (!tenuto!uD z !tenuto!uC) z | %62
 (!>!B,2- B,/F,/D,/F,/) (!tenuto!B, z !tenuto!D) z | F2 !fermata!z2 (!>!A2- A/G/F/E/) | %64
 (!>!G>F E/D/C/B,/) F, z"^pizz." [F,,C,^A,F] z | [B,,F,D]2 z2"^arco" [F,,C,^A,F] z z2 | %66
 [B,,D,B,]2 z2 z2 z2 |] %67
V:2
 x4 | x8 | x8 | x8 | x8 | x8 | x8 | x8 | x8 |: x8 | x8 | x8 | x8 | x8 | x8 | x8 | x8 | x8 | x8 | %19
 x8 | x8 | x8 | x8 | x8 |1 x8 :|2 x8 |:[K:G] x8 | x8 | x6[K:treble] x2 | x4[K:bass] x4 | x8 | x8 | %32
 x8 |1 x8 :|2 D,4[K:tenor] D,4 || D,4 D,4 |[K:tenor] D,4 D,4 | D,4 D,4 | D,8 | D,8 | D,8 | %41
 D,2 x2[K:bass] x4 ||[K:D] x8 | x8 | x8 | x8 | x8 | x8 | x8 | x8 | x8 | x8 | x8 | x8 | x8 | x8 | %56
 x8 | x8 | x8 | x8 | x8 | x8 | x8 | x8 | x8 | x8 | x8 |] %67

